X:1
T:The fairy dance
T:The fairy dance
T:Nathaniel Gow?
C:Nathaniel Gow?
L:1/8
M:4/4
K:C
V:1 treble 
V:1
 .abc (e d) | ^c2 cA c2 c(A | d^c)BA ^GABd | ^c(Bce) dcBA | ^GE^FG A2 :| (^cd) | e2 e^c ^f2 f(e | %7
 d^c)d^f e2 (ed) | ^cBce dcBA | ^GE^FG A(B^cd) | e^fe(^c f^g)fe | d(^cd^f) e2 d2 | ^cBc(e dcB)A | %13
 ^G(E^FG) A2 |] %14

